svg/device/solar_panel_line.svg

<svg xmlns="http://www.w3.org/2000/svg" width="24" height="24" viewBox="0 0 24 24"><g fill="none" fill-rule="evenodd"><path d="M24,0 L24,24 L0,24 L0,0 L24,0 Z M12.5935,23.2578 L12.5819,23.2595 L12.5109,23.295 L12.4919,23.2987 L12.4767,23.295 L12.4057,23.2595 C12.3958,23.2564 12.387,23.259 12.3821,23.2649 L12.378,23.2758 L12.3609,23.7031 L12.3659,23.7235 L12.3769,23.7357 L12.4805,23.8097 L12.4953,23.8136 L12.5071,23.8097 L12.6107,23.7357 L12.6233,23.7197 L12.6267,23.7031 L12.6096,23.2758 C12.6076,23.2657 12.601,23.2593 12.5935,23.2578 Z M12.8584,23.1453 L12.8445,23.1473 L12.6598,23.2397 L12.6499,23.2499 L12.6472,23.2611 L12.6651,23.6906 L12.6699,23.7034 L12.6784,23.7105 L12.8793,23.8032 C12.8914,23.8069 12.9022,23.803 12.9078,23.7952 L12.9118,23.7812 L12.8777,23.1665 C12.8753,23.1546 12.8674,23.147 12.8584,23.1453 Z M12.143,23.1473 C12.1332,23.1424 12.1222,23.1453 12.1156,23.1526 L12.1099,23.1665 L12.0758,23.7812 C12.0751,23.7927 12.0828,23.8019 12.0926,23.8046 L12.1083,23.8032 L12.3092,23.7105 L12.3186,23.7024 L12.3225,23.6906 L12.3404,23.2611 L12.3372,23.2485 L12.3278,23.2397 L12.143,23.1473 Z"/><path fill="#09244B" d="M18.1802,3.9999987 C19.0805389,3.9999987 19.8627802,4.60029032 20.1043656,5.45452678 L20.1413,5.60784 L21.861,14.2059 C22.0377619,15.0899 21.4022789,15.9174828 20.5236472,15.9942956 L20.3901,16.0001 L13,16.0001 L13,18.0001 L15,18.0001 C15.5523,18.0001 16,18.4478 16,19.0001 C16,19.51295 15.613973,19.9356092 15.1166239,19.9933725 L15,20.0001 L8.99998,20.0001 C8.4477,20.0001 7.99998,19.5524 7.99998,19.0001 C7.99998,18.48725 8.38602429,18.0645908 8.88335975,18.0068275 L8.99998,18.0001 L11,18.0001 L11,16.0001 L3.60988,16.0001 C2.70838476,16.0001 2.02152898,15.2146125 2.11851252,14.3379901 L2.13901,14.2059 L3.85862,5.60784 C4.03520278,4.72493556 4.77717302,4.07558477 5.66220818,4.00615969 L5.81979,3.9999987 L18.1802,3.9999987 Z M19.1802,11.0001 L15.605,11.0001 L15.905,14.0001 L19.7802,14.0001 L19.1802,11.0001 Z M13.595,11.0001 L10.405,11.0001 L10.105,14.0001 L13.895,14.0001 L13.595,11.0001 Z M8.395,11.0001 L4.81979,11.0001 L4.21979,14.0001 L8.095,14.0001 L8.395,11.0001 Z M18.1802,6.00007 L15.105,6.00007 L15.405,9.00007 L18.7802,9.00007 L18.1802,6.00007 Z M13.095,6.00008 L10.905,6.00008 L10.605,9.00008 L13.395,9.00008 L13.095,6.00008 Z M8.895,6.00008 L5.81979,6.00008 L5.21979,9.00008 L8.595,9.00008 L8.895,6.00008 Z"/></g></svg>

<svg xmlns="http://www.w3.org/2000/svg" width="24" height="24"><g fill="none" fill-rule="evenodd"><path d="M24 0v24H0V0zM12.594 23.258l-.012.002-.071.035-.02.004-.014-.004-.071-.036c-.01-.003-.019 0-.024.006l-.004.01-.017.428.005.02.01.013.104.074.015.004.012-.004.104-.074.012-.016.004-.017-.017-.427c-.002-.01-.009-.017-.016-.018m.264-.113-.014.002-.184.093-.01.01-.003.011.018.43.005.012.008.008.201.092c.012.004.023 0 .029-.008l.004-.014-.034-.614c-.003-.012-.01-.02-.02-.022m-.715.002a.023.023 0 0 0-.027.006l-.006.014-.034.614c0 .012.007.02.017.024l.015-.002.201-.093.01-.008.003-.011.018-.43-.003-.012-.01-.01z"/><path fill="#09244B" d="M18.18 4a2 2 0 0 1 1.924 1.455l.037.153 1.72 8.598a1.5 1.5 0 0 1-1.337 1.788L20.39 16H13v2h2a1 1 0 0 1 .117 1.993L15 20H9a1 1 0 0 1-.117-1.993L9 18h2v-2H3.61a1.5 1.5 0 0 1-1.491-1.662l.02-.132 1.72-8.598a2 2 0 0 1 1.803-1.602L5.82 4zm1 7h-3.575l.3 3h3.875zm-5.585 0h-3.19l-.3 3h3.79zm-5.2 0H4.82l-.6 3h3.875zm9.785-5h-3.075l.3 3h3.375zm-5.085 0h-2.19l-.3 3h2.79zm-4.2 0H5.82l-.6 3h3.375z"/></g></svg>
